X:1
T:Title
%%score { ( 1 3 ) | ( 2 4 ) }
L:1/8
M:6/8
K:D
V:1 treble nm="Grand Piano"
V:3 treble 
V:2 bass 
V:4 bass 
V:1
 z3 z2[Q:1/4=84] [FA] | [FA][=F^G][^FA] [Fd][Fc][FB] | [=FB]3 [^FA]2 [DF] | %3
 [FA][EG][^DF] [EG][FA][GB] |[M:5/8] [FA]3 F2 |[M:1/8] [A,FA] | %6
[M:3/4] [A,FA][B,=F^G] [A,^FA][Fd] [Fc][FB] | [=FB]3 [^FA]2 [DF]/F/ | %8
 [B,DA][B,DG] [B,DF][A,DF][K:bass] [F,D][G,CE] |[M:5/8] [F,D]-[F,D]- [F,D]3 | %10
[M:1/8][K:treble] [CE] |[M:3/4] [CE][DF] [EG][EG] [GB]>[FA] | [FA]3 F2 [B,FA] | %13
 [CEA][B,E^G] [CEA][EAc] [EGc]>[DGB] |[M:5/8] [CA]-[CA]- [CA]3 |[M:1/8] [A,GA] | %16
[M:3/4] [A,FA][B,=F^G] [A,^FA][Fd] [Fc][FB] | [=FB]3 [A,^FA]2 [=CDF] | %18
 [B,DA][B,DG] [B,DF][A,DF][K:bass] [F,D]>[G,CE] |[M:5/8] [F,D]-[F,D]- [F,D]3 |] %20
V:2
 z3 z2 [D,A,] | [D,A,][D,B,][D,A,] [D,A,][D,A,][D,A,] | [D,^G,]3 [D,A,]2 [D,A,] | %3
 [A,,A,][A,,A,][A,,A,] [A,,A,][A,,A,][A,,A,] |[M:5/8] z z2 D2 |[M:1/8] D, | %6
[M:3/4] D,D, D,[D,A,] [D,A,][D,A,] | [D,^G,]3 [D,A,]2 z/ D/ | G,,G,, G,,A,, A,,A,, | %9
[M:5/8] D,-D,- D,3 |[M:1/8] [A,,A,] |[M:3/4] [A,,A,][A,,A,] [A,,A,][A,,A,] [A,,A,]>[A,,A,] | %12
 z2 z D2 D, | E,E, E,E, E,>E, |[M:5/8] A,-A,- A,3 |[M:1/8] C, |[M:3/4] D,D, D,[D,A,] [D,A,][D,A,] | %17
 [D,^G,]3 D,2 D, | G,,G,, G,,A,, A,,>A,, |[M:5/8] D,-D,- D,3 |] %20
V:3
 x6 | x6 | x6 | x6 |[M:5/8] A,-A,- A,3 |[M:1/8] x |[M:3/4] x6 | x6 | x4[K:bass] x2 |[M:5/8] x5 | %10
[M:1/8][K:treble] x |[M:3/4] x6 | A,6 | x6 |[M:5/8] x5 |[M:1/8] x |[M:3/4] x6 | x6 | %18
 x4[K:bass] x2 |[M:5/8] x5 |] %20
V:4
 x6 | x6 | x6 | x6 |[M:5/8] D,-D,- D,3 |[M:1/8] x |[M:3/4] x6 | z2 z2 z [D,=C] | x6 |[M:5/8] x5 | %10
[M:1/8] x |[M:3/4] x6 | D,6 | x6 |[M:5/8] x5 |[M:1/8] x |[M:3/4] x6 | x6 | x6 |[M:5/8] x5 |] %20

